!!!COM: Bach, Johann Sebastian
!!!OPR: Joh. Seb. Bachs vierstimmige Choralgesänge
!!!XEN: Four-part Chorales
!!!OTL: 147. O Herzensangst, o Bangigkeit
!!!SCT: BWV 400
!!!SCA: Thematisch-systematisches Verzeichnis der musikalischen Werke Johann Sebastian Bach: Bach-Werke-Verzeichnis (Schmieder)
!!!YOR: Bach Gesellschaft Edition xxxix
!!!ENC: Steven Rasmussen
!!!CDT: 1685/3//-1750/7/28/
!!!OCY: Deutschland
!!!YEC: Copyright (c) 1994, 2000 Center for Computer Assisted Research in the Humanities
!!!YEM: Rights to all derivative editions reserved
!!!YEN: United States of America
**kern	**silbe	**kern	**silbe	**kern	**silbe	**kern	**silbe
*I:[SOPRANO]	*I:[SOPRANO]	*I:[ALTO]	*I:[ALTO]	*I:[TENORE]	*I:[TENORE]	*I:[BASSO]	*I:[BASSO]
*clefG2	*	*clefG2	*	*clefGv2	*	*clefF4	*
*k[b-e-a-]	*	*k[b-e-a-]	*	*k[b-e-a-]	*	*k[b-e-a-]	*
*E-:	*	*E-:	*	*E-:	*	*E-:	*
*M3/4	*	*M3/4	*	*M3/4	*	*M3/4	*
=1-	=1-	=1-	=1-	=1-	=1-	=1-	=1-
4b-\	O	4e-/	.	4G/	.	4E-\	.
4g/	Her-	4e-/	.	4B-\	.	4E-\	.
4cc\	-zens-	4e-/	.	8A-/L	.	4AA-/	.
.	.	.	.	8G/J	.	.	.
=2	=2	=2	=2	=2	=2	=2	=2
2b-;\	-angst,	2d;/	.	2F;/	.	2AA-;/	.
4e-/	o	4e-/	.	4B-\	.	4G\	o
=3	=3	=3	=3	=3	=3	=3	=3
2f/	Ban-	8d/L	.	2A-/	.	8F\L	Ban-
.	.	8c/J	.	.	.	8E-\J	.
.	.	2B-/	.	.	.	4D\	-gig-
4g/	-gig-	.	.	4G/	.	[4E-\	-keit
=4	=4	=4	=4	=4	=4	=4	=4
2a-/	-keit	2f/	.	4c\	.	4E-\]	.
.	.	.	.	4B-\	.	8D/L	.
.	.	.	.	.	.	8C/J	.
4b-\	und	4f/	.	4B-\	.	4D\	und
=5	=5	=5	=5	=5	=5	=5	=5
4g/	Za-	4e-/	.	4B-\	.	4E-\	.
2e-;/	-gen!	2B-;/	.	2G;/	.	2EE-;/	.
=6	=6	=6	=6	=6	=6	=6	=6
4f/	Was	4d/	.	4B-\	.	4BB-/	.
4g/	seh'	4e-/	.	4B-\	.	8E-\L	.
.	.	.	.	.	.	8D\J	.
4an/	ich	4e-/	.	4c\	.	4C/	.
=7	=7	=7	=7	=7	=7	=7	=7
2b-;\	hier	2d;/	.	2F;/	.	2BB-;/	.
4dd\	f\u3r	4f/	.	4B-\	.	4B-\	.
=8	=8	=8	=8	=8	=8	=8	=8
4cc\	ei-	4f/	.	4c\	.	4An\	.
4dd\	-ne	4f/	.	4B-\	.	4A-\	.
4ee-\	Lei-	4e-/	.	4B-\	.	4G\	.
=9	=9	=9	=9	=9	=9	=9	=9
4dd\	-che	4f/	.	2B-\	.	4F\	.
2cc\	tra-	4g/	.	.	.	(4E-\	.
.	.	8f/L	.	4An/	tra-	4F\)	.
.	.	8e-/J	.	.	.	.	.
=10	=10	=10	=10	=10	=10	=10	=10
2.b-;\	-gen!	2.d;/	.	2.F;/	-gen!	2.BB-;/	.
=11	=11	=11	=11	=11	=11	=11	=11
4b-\	Wess	4f/	.	4d\	.	8B-\L	.
.	.	.	.	.	.	8A-\J	.
4bn\	ist	4g/	.	4d\	.	8G\L	.
.	.	.	.	.	.	8F\J	.
4b\	das	8g/L	.	4G/	.	8E-\L	.
.	.	8f/J	.	.	.	8D\J	.
=12	=12	=12	=12	=12	=12	=12	=12
2cc;\	Grab,	2e-;/	.	2G;/	.	2C;/	.
4dd\	wie	4g/	.	4d\	.	4BBn/	.
=13	=13	=13	=13	=13	=13	=13	=13
4.ee-\	ist	4g/	.	4c\	.	4.C/	.
.	.	4g/	.	4c\	.	.	.
8ee-\	der	.	.	.	.	8BB-/	.
4ff\	Fels	4f/	.	4c\	.	4AA-/	.
=14	=14	=14	=14	=14	=14	=14	=14
4ee-\	zu	4g/	.	4c\	.	4GG/	.
2dd\	nen-	4a-/	.	4c\	.	4FF/	.
.	.	8g/L	.	4Bn\	.	4GG/	.
.	.	8f/J	.	.	.	.	.
=15	=15	=15	=15	=15	=15	=15	=15
2cc;\	-nen?	2e-;/	.	2G;/	.	2C;/	.
4b-\	Ich	4e-/	.	4d-\	.	4GG/	.
=16	=16	=16	=16	=16	=16	=16	=16
4.cc\	soll	4e-/	.	8c\L	.	2AA-/	.
.	.	.	.	8B-\J	.	.	.
.	.	4f/	.	4c\	.	.	.
8dd\	.	.	.	.	.	.	.
4ee-\	ihn	[4g/	ihn	4B-\	ihn	8GG/L	.
.	.	.	.	.	.	8AA-/J	.
=17	=17	=17	=17	=17	=17	=17	=17
2ee-\	ken-	4g/]	.	2.B-\	ken-	2.BB-/	.
.	.	8f/L	ken-	.	.	.	.
.	.	8e-/	.	.	.	.	.
4dd\	.	8f/	.	.	.	.	.
.	.	8a-/J	.	.	.	.	.
=18	=18	=18	=18	=18	=18	=18	=18
2.ee-;\	-nen.	2.g;/	-nen.	2.B-;\	-nen.	2.EE-;/	.
==|!	==|!	==|!	==|!	==|!	==|!	==|!	==|!
*-	*-	*-	*-	*-	*-	*-	*-
!!!RWG: Key is interpreted using the Humdrum key tool.
!!!END: 1994/07/27/
!!!KEY: 92610118
!!!EMD: Converted from MuseData to Humdrum Dec 19, 2000, by Andreas Kornstaedt using muse2kern.
